X:78
T:Drunken Landlady
Z: id:dc-reel-71
M:C
L:1/8
K:A Dorian
Bd|eAA2 edBd|eAA2 edBc|dedB G3A|Bcdg edBd|!
eAA2 edBd|eAA2 edBc|d2ef gaag|gedB A2:|!
Bd|eaag a2ga|b2gb abge|dedB G3A|Bcdg edBd|!
eaag a2ga|b2gb abge|d2ef gaag|gedB A2:|!

